Simply-Purple-Circles/scalable/apps/system-software-update.svg

<svg xmlns="http://www.w3.org/2000/svg" width="48" height="48" viewBox="0 0 12.7 12.7"><path fill="#963996" d="M6.344.073a6.29 6.29 0 0 0-6.29 6.29 6.29 6.29 0 0 0 6.29 6.288 6.29 6.29 0 0 0 6.29-6.289 6.29 6.29 0 0 0-6.29-6.29zm-.018.936a5.407 5.407 0 0 1 5.407 5.407 5.407 5.407 0 0 1-5.407 5.407A5.407 5.407 0 0 1 .92 6.416 5.407 5.407 0 0 1 6.326 1.01zm0 1.059a4.28 4.28 0 0 0-2.775 1.019c-.321.31.524 1.019.81.723a3.194 3.194 0 0 1 1.965-.67 3.21 3.21 0 0 1 3.219 3.218 3.21 3.21 0 0 1-3.219 3.218 3.2 3.2 0 0 1-2.275-.942 3.213 3.213 0 0 1-.795-1.31h1.22l-1.73-2.012-1.728 2.011h1.129a4.293 4.293 0 0 0 4.18 3.326 4.3 4.3 0 0 0 4.29-4.291 4.299 4.299 0 0 0-4.29-4.29z"/></svg>

<?xml version="1.0" encoding="UTF-8" standalone="no"?>
<svg
   xmlns:dc="http://purl.org/dc/elements/1.1/"
   xmlns:cc="http://creativecommons.org/ns#"
   xmlns:rdf="http://www.w3.org/1999/02/22-rdf-syntax-ns#"
   xmlns:svg="http://www.w3.org/2000/svg"
   xmlns="http://www.w3.org/2000/svg"
   xmlns:sodipodi="http://sodipodi.sourceforge.net/DTD/sodipodi-0.dtd"
   xmlns:inkscape="http://www.inkscape.org/namespaces/inkscape"
   width="48"
   height="48"
   viewBox="0 0 12.7 12.7"
   version="1.1"
   id="svg4"
   sodipodi:docname="system-software-update.svg"
   inkscape:version="0.92.4 (5da689c313, 2019-01-14)">
  <metadata
     id="metadata10">
    <rdf:RDF>
      <cc:Work
         rdf:about="">
        <dc:format>image/svg+xml</dc:format>
        <dc:type
           rdf:resource="http://purl.org/dc/dcmitype/StillImage" />
        <dc:title></dc:title>
      </cc:Work>
    </rdf:RDF>
  </metadata>
  <defs
     id="defs8" />
  <sodipodi:namedview
     pagecolor="#ffffff"
     bordercolor="#666666"
     borderopacity="1"
     objecttolerance="10"
     gridtolerance="10"
     guidetolerance="10"
     inkscape:pageopacity="0"
     inkscape:pageshadow="2"
     inkscape:window-width="1087"
     inkscape:window-height="480"
     id="namedview6"
     showgrid="false"
     inkscape:zoom="4.9166667"
     inkscape:cx="2.1355932"
     inkscape:cy="24"
     inkscape:window-x="0"
     inkscape:window-y="25"
     inkscape:window-maximized="0"
     inkscape:current-layer="svg4" />
  <path
     d="m 6.344,0.073 a 6.29,6.29 0 0 0 -6.29,6.29 6.29,6.29 0 0 0 6.29,6.288 6.29,6.29 0 0 0 6.29,-6.289 6.29,6.29 0 0 0 -6.29,-6.29 z M 6.326,1.009 A 5.407,5.407 0 0 1 11.733,6.416 5.407,5.407 0 0 1 6.326,11.823 5.407,5.407 0 0 1 0.92,6.416 5.407,5.407 0 0 1 6.326,1.01 Z m 0,1.059 A 4.28,4.28 0 0 0 3.551,3.087 C 3.23,3.397 4.075,4.106 4.361,3.81 A 3.194,3.194 0 0 1 6.326,3.14 3.21,3.21 0 0 1 9.545,6.358 3.21,3.21 0 0 1 6.326,9.576 3.2,3.2 0 0 1 4.051,8.634 3.213,3.213 0 0 1 3.256,7.324 h 1.22 L 2.746,5.312 1.018,7.323 h 1.129 a 4.293,4.293 0 0 0 4.18,3.326 4.3,4.3 0 0 0 4.29,-4.291 4.299,4.299 0 0 0 -4.29,-4.29 z"
     id="path2"
     inkscape:connector-curvature="0"
     style="fill:#963996" />
</svg>
